static/logos/audi-wordmark-white.svg

<svg width="61" height="38" viewBox="0 0 61 38" fill="none" xmlns="http://www.w3.org/2000/svg">
<g clip-path="url(#clip0_1204_190)">
<mask id="mask0_1204_190" style="mask-type:luminance" maskUnits="userSpaceOnUse" x="0" y="0" width="61" height="38">
<path d="M60.5 0H0.5V38H60.5V0Z" fill="white"/>
</mask>
<g mask="url(#mask0_1204_190)">
<path fill-rule="evenodd" clip-rule="evenodd" d="M50.4913 36.7922V29.0454H47.2942V36.7922H50.4913ZM33.5656 33.5756V29.1626H30.4668V32.536C30.4668 33.5165 30.4276 33.7914 30.3689 34.0464C30.1531 34.7526 29.4077 35.0657 28.643 35.0657C27.5842 35.0657 27.0938 34.654 26.8975 34.0069C26.8388 33.7917 26.8192 33.5563 26.7996 33.3209C26.78 33.0659 26.7996 32.791 26.7996 32.4975V29.1629H23.6616V33.5955C23.6616 34.5962 23.9953 35.3413 24.5441 35.8509C25.4854 36.773 27.0742 37.0475 28.5451 37.0475C30.3297 37.0475 31.7026 36.7926 32.6831 35.8317C33.1934 35.3409 33.5656 34.6938 33.5656 33.5756ZM18.3465 33.0264C18.1912 32.9995 18.0337 32.9865 17.8761 32.9875H14.346C14.1693 32.9875 13.9731 33.0071 13.8752 33.0264C13.9339 32.9673 14.0518 32.8501 14.1693 32.693L15.7577 30.0647C15.9736 29.7121 16.0715 29.4767 16.1107 29.3787C16.1499 29.4767 16.2478 29.7121 16.4636 30.085L18.0915 32.7329C18.1702 32.8501 18.2878 32.9673 18.3465 33.0264ZM24.2696 36.7922L17.209 26.2019H13.2476L14.2869 27.4374C14.3065 27.457 14.346 27.4762 14.3848 27.4965C14.3456 27.5161 14.3065 27.5353 14.2869 27.5549L8.12878 36.7922H11.6981L12.6593 35.2035C12.6985 35.1251 12.718 35.0464 12.718 35.0076C12.7572 35.0076 12.8555 35.0464 12.9534 35.0464H19.3274C19.4253 35.0464 19.5037 35.0268 19.5428 35.0076C19.5392 35.0627 19.5529 35.1176 19.582 35.1646L20.5824 36.7922H24.2696ZM46.4316 32.8112C46.4316 31.948 46.0784 30.9476 44.9803 29.5551L42.3324 26.2016H38.6453L40.7437 28.555C41.097 28.9474 41.5479 29.3001 41.5479 29.3001C41.0382 29.0056 40.3911 28.8883 39.8811 28.8883C38.6652 28.8883 37.4291 29.1433 36.3314 29.7516C35.1544 30.3981 34.3698 31.4772 34.3698 32.9092C34.3698 34.0072 34.8602 34.8509 35.4877 35.498C36.9002 36.9098 39.4687 37.0472 40.4103 37.0472C41.8025 37.0472 43.9796 36.7335 45.2157 35.6155C45.9416 34.9485 46.4316 34.0271 46.4316 32.8112ZM43.372 32.9092C43.372 33.7133 42.8421 34.321 42.1754 34.6543C41.6262 34.9488 40.9788 35.0272 40.4103 35.0272C39.8419 35.0272 39.1749 34.9093 38.6257 34.6347C37.959 34.3014 37.4487 33.6542 37.4487 32.948C37.4487 32.105 38.0958 31.4376 38.8611 31.1043C39.3319 30.8891 39.9007 30.8104 40.3512 30.8104C40.7832 30.8104 41.4107 30.8689 41.9011 31.0654C42.784 31.4376 43.372 32.1439 43.372 32.9092ZM49.4756 0.952652C47.1794 0.949364 44.9498 1.72402 43.1502 3.15033C41.3509 1.72356 39.1211 0.94884 36.8248 0.952652C34.5287 0.949439 32.2992 1.72409 30.4997 3.15033C28.7006 1.72339 26.4709 0.948653 24.1746 0.952652C21.8785 0.949439 19.649 1.72409 17.8495 3.15033C16.05 1.72409 13.8205 0.949439 11.5244 0.952652C5.8896 0.952652 1.32324 5.51868 1.32324 11.1538C1.32324 16.7883 5.88926 21.355 11.5244 21.355C13.8205 21.3582 16.05 20.5836 17.8495 19.1573C19.649 20.5836 21.8785 21.3582 24.1746 21.355C26.4708 21.3587 28.7005 20.584 30.4997 19.1573C32.2992 20.5836 34.5287 21.3582 36.8248 21.355C39.1211 21.3588 41.3509 20.5841 43.1502 19.1573C44.9495 20.5841 47.1793 21.3588 49.4756 21.355C55.1105 21.355 59.6765 16.7887 59.6765 11.1538C59.6765 5.51901 55.1105 0.952652 49.4756 0.952652ZM16.1804 17.4909C14.8805 18.4392 13.2566 19.0179 11.5244 19.0179C7.17752 19.0179 3.66004 15.5007 3.66004 11.1538C3.66004 6.80694 7.17752 3.28945 11.5244 3.28945C13.2566 3.28945 14.8795 3.86851 16.1804 4.8171C14.7471 6.61772 13.9689 8.85237 13.9738 11.1538C13.9748 13.4544 14.7523 15.6872 16.1804 17.4909ZM17.8498 15.8264C16.8473 14.4752 16.3075 12.8364 16.3109 11.1538C16.3066 9.47109 16.8464 7.83206 17.8498 6.48122C18.8532 7.83206 19.3931 9.47109 19.3888 11.1538C19.3919 12.8364 18.8522 14.475 17.8498 15.8264ZM28.8309 17.4909C27.4802 18.4849 25.8463 19.0193 24.1693 19.0156C22.4957 19.0193 20.8652 18.4847 19.5186 17.4909C20.9468 15.6875 21.7243 13.4547 21.7252 11.1542C21.7301 8.8527 20.9519 6.61805 19.5186 4.81744C20.8651 3.82347 22.4956 3.28883 24.1693 3.29244C25.9141 3.29244 27.5261 3.85689 28.8309 4.81744C27.3976 6.61805 26.6194 8.8527 26.6243 11.1542C26.6252 13.4547 27.4027 15.6875 28.8309 17.4909ZM30.4997 15.8264C29.4971 14.4752 28.9574 12.8364 28.9608 11.1538C28.9565 9.47109 29.4963 7.83206 30.4997 6.48122C31.5032 7.83202 32.0432 9.47105 32.039 11.1538C32.0422 12.8365 31.5024 14.4752 30.4997 15.8264ZM41.4811 17.4909C40.1763 18.4518 38.5643 19.0156 36.8198 19.0156C35.0753 19.0156 33.4736 18.4508 32.1688 17.4909C33.597 15.6875 34.3745 13.4547 34.3754 11.1542C34.3803 8.8527 33.6021 6.61805 32.1688 4.81744C33.4736 3.85722 35.0753 3.29244 36.8198 3.29244C38.5643 3.29244 40.1763 3.85689 41.4811 4.81744C40.048 6.61818 39.2699 8.85275 39.2745 11.1542C39.2756 13.4546 40.0531 15.6873 41.4811 17.4909ZM43.1505 15.8264C42.148 14.4752 41.6083 12.8364 41.6116 11.1538C41.6073 9.47109 42.1471 7.83206 43.1505 6.48122C44.154 7.83206 44.6938 9.47109 44.6895 11.1538C44.6926 12.8364 44.1529 14.475 43.1505 15.8264ZM49.4756 19.0179C47.7428 19.0179 46.1192 18.4392 44.8196 17.4909C46.2476 15.6873 47.0251 13.4546 47.0263 11.1542C47.0309 8.85275 46.2527 6.61818 44.8196 4.81744C46.1205 3.86917 47.7431 3.28979 49.4756 3.28979C53.8219 3.28979 57.34 6.80727 57.34 11.1542C57.34 15.5004 53.8219 19.0179 49.4756 19.0179Z" fill="white"/>
</g>
</g>
<defs>
<clipPath id="clip0_1204_190">
<rect width="60" height="38" fill="white" transform="translate(0.5)"/>
</clipPath>
</defs>
</svg>

<svg xmlns="http://www.w3.org/2000/svg" width="102.737" height="64" fill="none" viewBox="0 0 61 38"><g clip-path="url(#a)"><mask id="b" width="61" height="38" x="0" y="0" maskUnits="userSpaceOnUse" style="mask-type:luminance"><path fill="#fff" d="M60.5 0H.5v38h60z"/></mask><g mask="url(#b)"><path fill="#fff" fill-rule="evenodd" d="M50.491 36.792v-7.747h-3.197v7.747zm-16.925-3.216v-4.413h-3.1v3.373c0 .98-.038 1.255-.097 1.51-.216.707-.961 1.02-1.726 1.02-1.059 0-1.55-.412-1.745-1.06a4 4 0 0 1-.098-.685c-.02-.255 0-.53 0-.823v-3.335h-3.138v4.433c0 1 .333 1.745.882 2.255.941.922 2.53 1.197 4.001 1.197 1.785 0 3.158-.255 4.138-1.216.51-.491.883-1.138.883-2.256m-15.22-.55a2.7 2.7 0 0 0-.47-.039h-3.53c-.177 0-.373.02-.47.04.058-.06.176-.177.293-.334l1.589-2.628c.216-.353.314-.588.353-.686.039.098.137.333.353.706l1.628 2.648c.078.117.196.234.255.293m5.924 3.766-7.061-10.59h-3.961l1.039 1.235c.02.02.059.04.098.06-.04.02-.079.038-.098.058l-6.158 9.237h3.57l.96-1.589a.5.5 0 0 0 .059-.195c.04 0 .137.038.235.038h6.374c.098 0 .177-.02.216-.038-.004.055.01.11.039.157l1 1.627zm22.162-3.98c0-.864-.354-1.864-1.452-3.257l-2.648-3.353h-3.687l2.099 2.353c.353.392.804.745.804.745-.51-.294-1.157-.412-1.667-.412-1.216 0-2.452.255-3.55.864-1.177.646-1.961 1.725-1.961 3.157 0 1.098.49 1.942 1.118 2.589 1.412 1.412 3.98 1.55 4.922 1.55 1.393 0 3.57-.315 4.806-1.433.726-.666 1.216-1.588 1.216-2.804m-3.06.097c0 .804-.53 1.412-1.197 1.745-.549.295-1.196.373-1.765.373-.568 0-1.235-.118-1.784-.392-.667-.334-1.177-.98-1.177-1.687 0-.843.647-1.51 1.412-1.844.47-.215 1.04-.294 1.49-.294.432 0 1.06.059 1.55.255.883.373 1.471 1.079 1.471 1.844M49.476.953A10.16 10.16 0 0 0 43.15 3.15 10.15 10.15 0 0 0 36.825.953 10.16 10.16 0 0 0 30.5 3.15 10.15 10.15 0 0 0 24.175.953a10.16 10.16 0 0 0-6.326 2.197A10.16 10.16 0 0 0 11.525.953c-5.634 0-10.2 4.566-10.2 10.2 0 5.635 4.565 10.202 10.2 10.202a10.16 10.16 0 0 0 6.326-2.198 10.16 10.16 0 0 0 6.325 2.198 10.15 10.15 0 0 0 6.325-2.198 10.16 10.16 0 0 0 6.325 2.198c2.296.004 4.526-.77 6.325-2.198a10.15 10.15 0 0 0 6.326 2.198c5.635 0 10.2-4.566 10.2-10.201S55.112.953 49.477.953M16.18 17.49a7.9 7.9 0 0 1-4.656 1.527 7.86 7.86 0 0 1-7.864-7.864 7.86 7.86 0 0 1 7.864-7.865 7.92 7.92 0 0 1 4.656 1.528 10.14 10.14 0 0 0-2.206 6.337c0 2.3.778 4.533 2.206 6.337m1.67-1.665a7.8 7.8 0 0 1-1.54-4.672 7.8 7.8 0 0 1 1.54-4.673 7.8 7.8 0 0 1 1.539 4.673 7.82 7.82 0 0 1-1.54 4.672m10.98 1.665a7.84 7.84 0 0 1-4.66 1.525 7.8 7.8 0 0 1-4.651-1.525 10.2 10.2 0 0 0 2.206-6.337 10.14 10.14 0 0 0-2.206-6.337 7.8 7.8 0 0 1 4.65-1.525c1.745 0 3.357.565 4.662 1.525a10.14 10.14 0 0 0-2.207 6.337c.001 2.3.779 4.534 2.207 6.337m1.67-1.665a7.8 7.8 0 0 1-1.54-4.672A7.8 7.8 0 0 1 30.5 6.48a7.8 7.8 0 0 1 1.539 4.673 7.8 7.8 0 0 1-1.54 4.672m10.981 1.665a7.83 7.83 0 0 1-4.661 1.525 7.8 7.8 0 0 1-4.651-1.525 10.2 10.2 0 0 0 2.206-6.337 10.14 10.14 0 0 0-2.206-6.337 7.8 7.8 0 0 1 4.65-1.525c1.745 0 3.357.565 4.662 1.525a10.14 10.14 0 0 0-2.206 6.337c0 2.3.778 4.533 2.206 6.337m1.67-1.665a7.8 7.8 0 0 1-1.54-4.672 7.8 7.8 0 0 1 1.54-4.673 7.8 7.8 0 0 1 1.538 4.673 7.82 7.82 0 0 1-1.538 4.672m6.325 3.192a7.9 7.9 0 0 1-4.656-1.527 10.2 10.2 0 0 0 2.206-6.337 10.14 10.14 0 0 0-2.206-6.337 7.86 7.86 0 0 1 12.52 6.337 7.86 7.86 0 0 1-7.864 7.864" clip-rule="evenodd"/></g></g><defs><clipPath id="a"><path fill="#fff" d="M.5 0h60v38H.5z"/></clipPath></defs></svg>
